X: 248
T:Egg Hornpipe. JC.253
T:Fisher's Hornpipe,aka. JC.253
T:Blanchard's Hornpipe,aka. JC253
M:C|
L:1/8
Q:140
C:by Arnold Fishar
S:John Clare,Poet,Helpstone (1793-1864)
R:Hornpipe
O:England4
A:Northamptonshire
N:MR.No KS in MS.1st 2 notes after 1st double bar lines and last 2 notes
N:in bar 12 are semi-qu's in MS..aka Peckhover Walk HP, China Orange
N:HP.CGP.
Z:vmp.P. Headford
K:D
((3ABc)|dAFA GBAG|FDFA GBAG|GEDE GEEG|
FDD"qu's in MS"FB2c2|!
dAFA GBAG|FDFA GBAG|FAdf Aceg|fedcd2:|!
|:cd|ecAc efge|fdcd efge|fdcd efge|cBAGA2Bc|!
dAFA BcdB|AFDA GABG|AFDF GEFG|A2"crots in MS"DA,D2|]
